X: 33665
T: Rambling Pitchfork, The
R: jig
M: 6/8
K: Dmajor
F2G AFA|dcA AGF|1 G3 ABc|ded cAG:|2 GFG ABG|AFD D3||
d2e f2d|dcA ABc|d2e f2g|afd dcA|
[1 d2e f2d|ecA AGF|GFG ABG|AFD D3:|
[2 afa geg|fed cAF|G2A BAG|AFD D3||

